img/ship.svg

<svg id="ship_svg" viewBox="0 0 24 28" fill="none" xmlns="http://www.w3.org/2000/svg">
    <path d="M24.1879 26.8631C23.4713 26.8631 23.1529 26.6242 22.707 26.3057C22.2293 25.9554 21.6242 25.5573 20.5892 25.4777L23.6146 18.5191C23.7898 18.121 23.6146 17.6592 23.2166 17.4682L19.1879 15.6688C19.3312 15.5255 19.4268 15.3185 19.4268 15.1115V9.57006C19.4268 9.1242 19.0764 8.77389 18.6306 8.77389H17.0064V6.59236C17.0064 6.30573 16.7675 6.06688 16.4809 6.06688H15.8917V0.525478C15.8917 0.238854 15.6529 0 15.3662 0H12.6274C12.3408 0 12.1019 0.238854 12.1019 0.525478V6.06688H7.78662C7.5 6.06688 7.26115 6.30573 7.26115 6.59236V8.75796H5.57325C5.12739 8.75796 4.77707 9.10828 4.77707 9.55414V15.1274C4.77707 15.3185 4.85669 15.4936 4.96815 15.6369L0.812102 17.5C0.414013 17.6752 0.238854 18.1369 0.414013 18.551L3.50318 25.6688C2.99363 25.844 2.59554 26.0987 2.27707 26.3217C1.83121 26.6401 1.51274 26.879 0.796178 26.879C0.350318 26.879 0 27.2293 0 27.6752C0 28.121 0.350318 28.4713 0.796178 28.4713C2.02229 28.4713 2.69108 27.9936 3.21656 27.6115C3.66242 27.293 3.98089 27.0541 4.69745 27.0541C5.41401 27.0541 5.73248 27.293 6.17834 27.6115C6.70382 27.9936 7.35669 28.4713 8.59872 28.4713C9.82484 28.4713 10.4936 27.9936 11.0191 27.6115C11.465 27.293 11.7834 27.0541 12.5 27.0541C13.2166 27.0541 13.535 27.293 13.9809 27.6115C14.5064 27.9936 15.1592 28.4713 16.4013 28.4713C17.6274 28.4713 18.2962 27.9936 18.8217 27.6115C19.2675 27.293 19.586 27.0541 20.3025 27.0541C21.0191 27.0541 21.3376 27.293 21.7834 27.6115C22.3089 27.9936 22.9618 28.4713 24.2038 28.4713C24.6497 28.4713 25 28.121 25 27.6752C24.9841 27.2134 24.6338 26.8631 24.1879 26.8631ZM13.1529 1.06688H14.8248V2.37261H13.1529V1.06688ZM13.1529 3.16879H14.8248V6.06688H13.1529V3.16879ZM8.32802 7.11783H12.6433H15.3822H15.9713V8.75796H8.32802V7.11783ZM6.36943 10.3662H17.8503V15.0955L12.3408 12.6274C12.1338 12.5318 11.8949 12.5318 11.6879 12.6274L6.36943 15.0159V10.3662ZM2.18153 18.6306L12.0223 14.2357L21.8631 18.6306L20.9873 20.6369L12.3248 16.9745C12.1975 16.9268 12.0541 16.9268 11.9268 16.9745L3.08917 20.7166L2.18153 18.6306ZM16.4013 26.8631C15.6847 26.8631 15.3662 26.6242 14.9204 26.3057C14.3949 25.9236 13.742 25.4459 12.5 25.4459C11.2739 25.4459 10.6051 25.9236 10.0796 26.3057C9.63376 26.6242 9.31529 26.8631 8.59872 26.8631C7.88216 26.8631 7.56369 26.6242 7.11783 26.3057C6.67197 25.9873 6.09873 25.6051 5.17516 25.4936L3.51911 21.672L12.1338 18.0255L20.5732 21.5924L18.8057 25.6688C18.7898 25.7006 18.7898 25.7325 18.7898 25.7643C18.4395 25.9236 18.1529 26.1147 17.914 26.3057C17.4363 26.6401 17.1178 26.8631 16.4013 26.8631Z"
          fill="#ACACAC"/>
</svg>

<svg viewBox="0 0 24 28" fill="none" xmlns="http://www.w3.org/2000/svg"><path d="M24.188 26.863c-.717 0-1.035-.239-1.481-.557-.478-.35-1.083-.749-2.118-.828l3.026-6.959a.805.805 0 0 0-.398-1.05l-4.03-1.8a.81.81 0 0 0 .24-.558v-5.54a.788.788 0 0 0-.796-.797h-1.625V6.592a.53.53 0 0 0-.525-.525h-.59V.525A.53.53 0 0 0 15.367 0h-2.739a.53.53 0 0 0-.525.525v5.542H7.787a.53.53 0 0 0-.526.525v2.166H5.573a.788.788 0 0 0-.796.796v5.573c0 .191.08.367.191.51L.812 17.5a.795.795 0 0 0-.398 1.051l3.09 7.118a4.87 4.87 0 0 0-1.227.653c-.446.318-.764.557-1.48.557a.788.788 0 0 0-.797.796c0 .446.35.796.796.796 1.226 0 1.895-.477 2.42-.86.446-.318.765-.557 1.481-.557.717 0 1.035.239 1.481.558.526.382 1.179.86 2.42.86 1.227 0 1.896-.478 2.421-.86.446-.319.764-.558 1.481-.558.717 0 1.035.239 1.48.558.526.382 1.18.86 2.421.86 1.226 0 1.895-.478 2.42-.86.446-.319.765-.558 1.481-.558.717 0 1.036.239 1.481.558.526.382 1.179.86 2.42.86a.789.789 0 0 0 .797-.797c-.016-.462-.366-.812-.812-.812zM13.153 1.067h1.672v1.306h-1.672V1.067zm0 2.102h1.672v2.898h-1.672V3.169zM8.328 7.118h7.643v1.64H8.328v-1.64zm-1.959 3.248H17.85v4.73l-5.51-2.469a.779.779 0 0 0-.652 0l-5.319 2.389v-4.65zm-4.187 8.265l9.84-4.395 9.841 4.395-.876 2.006-8.662-3.663a.571.571 0 0 0-.398 0l-8.838 3.743-.907-2.086zm14.22 8.232c-.717 0-1.036-.239-1.482-.557-.525-.382-1.178-.86-2.42-.86-1.226 0-1.895.478-2.42.86-.446.318-.765.557-1.481.557-.717 0-1.035-.239-1.481-.557-.446-.319-1.02-.7-1.943-.812L3.52 21.672l8.615-3.646 8.44 3.566-1.768 4.077c-.016.032-.016.064-.016.095-.35.16-.637.35-.876.542-.478.334-.796.557-1.513.557z" fill="#000"/></svg>
